assets/images/mobile-menu.svg

<svg viewBox="0 0 24 24" xmlns="http://www.w3.org/2000/svg"><path d="m0 0h24v24h-24z" fill="none"/><path d="m3 18h18v-2h-18zm0-5h18v-2h-18zm0-7v2h18v-2z" fill="#fff"/></svg>

<svg id="baseline-menu-24px" xmlns="http://www.w3.org/2000/svg" viewBox="0 0 24 24">
  <defs>
    <style>
      .cls-1 {
        fill: none;
      }

      .cls-2 {
        fill: #fff;
      }
    </style>
  </defs>
  <path id="Path_1" data-name="Path 1" class="cls-1" d="M0,0H24V24H0Z"/>
  <path id="Path_2" data-name="Path 2" class="cls-2" d="M3,18H21V16H3Zm0-5H21V11H3ZM3,6V8H21V6Z"/>
</svg>
